icons/code-brand-edit-16.svg

<?xml version="1.0" encoding="UTF-8"?><svg id="icons" xmlns="http://www.w3.org/2000/svg" viewBox="0 0 16 16"><defs><style>.cls-1{fill:none;}.cls-1,.cls-2{stroke-width:0px;}.cls-2{fill:#231f20;}</style></defs><rect class="cls-1" width="16" height="16"/><path class="cls-2" d="m12.5,2c-.82715,0-1.5.67285-1.5,1.5,0,.651.41925,1.20081,1,1.4079v.5921c0,1.37891-1.12158,2.5-2.5,2.5h-3c-.55988,0-1.07776.20862-1.5.54291V2.9079c.58075-.20709,1-.7569,1-1.4079,0-.82715-.67285-1.5-1.5-1.5s-1.5.67285-1.5,1.5c0,.651.41925,1.20081,1,1.4079v10.29602c-.52325.20282-.90002.70197-.90002,1.29608,0,.77197.62805,1.39996,1.40002,1.39996.77203,0,1.40002-.62799,1.40002-1.39996,0-.59412-.37671-1.09326-.90002-1.29608v-2.63263c0-.85156.68701-1.57129,1.5-1.57129h3c1.92969,0,3.5-1.57031,3.5-3.5v-.5921c.58075-.20709,1-.7569,1-1.4079,0-.82715-.67285-1.5-1.5-1.5Zm-7.53333,12.73334c0,.12885-.10449.23334-.23334.23334h-.45435c-.13568,0-.24567-.10992-.24567-.24561v-.45441c0-.12885.10449-.23334.23334-.23334h.46667c.12885,0,.23334.10449.23334.23334v.46667Zm-.21667-12.73334h-.5c-.13806,0-.25-.11194-.25-.25v-.5c0-.13806.11194-.25.25-.25h.48682c.14539,0,.26318.1178.26318.26312v.48688c0,.13806-.11194.25-.25.25Zm8.25,1.75c0,.13806-.11194.25-.25.25h-.5c-.13806,0-.25-.11194-.25-.25v-.5c0-.13806.11194-.25.25-.25h.48682c.14539,0,.26318.1178.26318.26312v.48688Zm-.06281,6.25001l1.06281,1.04907-3.99999,3.95092-2,1,1-2,3.93719-3.99999Zm1.37482-1.33081l-.64526.64758.99738.99731.64526-.64758-.99738-.99731Z"/></svg>

<svg xmlns="http://www.w3.org/2000/svg" viewBox="0 0 16 16"><path stroke-width="0" fill="none" d="M0 0h16v16H0z"/><path d="M12.5 2c-.827 0-1.5.673-1.5 1.5 0 .651.42 1.2 1 1.408V5.5C12 6.879 10.878 8 9.5 8h-3c-.56 0-1.078.209-1.5.543V2.908A1.5 1.5 0 0 0 6 1.5C6 .673 5.327 0 4.5 0S3 .673 3 1.5c0 .651.42 1.2 1 1.408v10.296c-.523.203-.9.702-.9 1.296 0 .772.628 1.4 1.4 1.4.772 0 1.4-.628 1.4-1.4 0-.594-.377-1.093-.9-1.296V10.57C5 9.72 5.687 9 6.5 9h3C11.43 9 13 7.43 13 5.5v-.592c.58-.207 1-.757 1-1.408 0-.827-.673-1.5-1.5-1.5zM4.967 14.733a.233.233 0 0 1-.234.234H4.28a.246.246 0 0 1-.246-.246v-.454c0-.13.105-.234.234-.234h.466c.13 0 .234.105.234.234v.466zM4.75 2h-.5A.25.25 0 0 1 4 1.75v-.5A.25.25 0 0 1 4.25 1h.487c.145 0 .263.118.263.263v.487a.25.25 0 0 1-.25.25zM13 3.75a.25.25 0 0 1-.25.25h-.5a.25.25 0 0 1-.25-.25v-.5a.25.25 0 0 1 .25-.25h.487c.145 0 .263.118.263.263v.487zM12.937 10L14 11.05 10 15l-2 1 1-2 3.937-4zm1.375-1.33l-.645.647.997.997.645-.647-.997-.998z" fill="#231f20" stroke-width="0"/></svg>
